!!!COA:	Josquin des Prez
!!!CDT:	~1450-1521/08/27
!!!OTL@@LAT: O domine Jesu Christe
!!!OTL2@@LAT: adoro te in cruce vulneratum
!!!OTL3@@LAT: adoro te in sepulcro positum
!!!OTL4@@LAT: pastor bone
!!!OTL5@@LAT: propter illam amaritudinem
!!!AGN:	Motet
!!!SCT:	NJE 22.1
!!!SCA:	New Josquin Edition 22.1
!!!voices:	4
**kern	**kern	**kern	**kern
*staff4	*staff3	*staff2	*staff1
*Ivox	*Ivox	*Ivox	*Ivox
*I"Bassus	*I"Tenor	*I"Altus	*I"Superius
*I'B	*I'T	*I'A	*I'S
*>[A,B,C,D,E]	*>[A,B,C,D,E]	*>[A,B,C,D,E]	*>[A,B,C,D,E]
*>Part1[A]	*>Part1[A]	*>Part1[A]	*>Part1[A]
*>Part2[B]	*>Part2[B]	*>Part2[B]	*>Part2[B]
*>Part3[C]	*>Part3[C]	*>Part3[C]	*>Part3[C]
*>Part4[D]	*>Part4[D]	*>Part4[D]	*>Part4[D]
*>Part5[E]	*>Part5[E]	*>Part5[E]	*>Part5[E]
*clefF4	*clefGv2	*clefGv2	*clefG2
*>A	*>A	*>A	*>A
*k[]	*k[]	*k[]	*k[]
*M2/1	*M2/1	*M2/1	*M2/1
*met(C|)	*met(C|)	*met(C|)	*met(C|)
*MM360	*MM360	*MM360	*MM360
!!section: Prima pars
!!!OMD: Prima pars
=1-	=1-	=1-	=1-
[0D	[0D	[0A	[0d
=2	=2	=2	=2
0D_	0D]	0A]	0d]
=3	=3	=3	=3
0D_	[0A	[0F	[0f
=4	=4	=4	=4
0D]	0A]	0F]	0f]
=5	=5	=5	=5
[0C	[0c	[0G	[0e
=6	=6	=6	=6
1C]	1c]	1G]	1e]
1C	1c	1G	1e
=7	=7	=7	=7
0C;	0c;	0G;	0e;
=8	=8	=8	=8
0D	1.A	0F	0f
.	2B\	.	.
=9	=9	=9	=9
1C	1c	1G	1e
1D	1A	1F	[1f
=10	=10	=10	=10
0BB-	0d	0D	1f]
.	.	.	2e/
.	.	.	2d/
=11	=11	=11	=11
[0AA	1.c	[0A	0e
.	2B\	.	.
=12	=12	=12	=12
0AA_	1A	1A]	0e
.	2G/	1B	.
.	2F/	.	.
=13	=13	=13	=13
0AA]	0E	0c	0r
=14	=14	=14	=14
0AA 0A	0e	0A	0c
=15	=15	=15	=15
1A	1c	1c	1e
1F	1A	1d	1f
=16	=16	=16	=16
0E	0B	0e	0g
=17	=17	=17	=17
1AA	0A	1c	[0a
[1D	.	1d	.
=18	=18	=18	=18
1D]	1d	[0A	0a_
1AA	1c	.	.
=19	=19	=19	=19
1D	1d	0A]	0a]
1C	1e	.	.
=20	=20	=20	=20
0D	0f	0A	1r
.	.	.	[1d
=21	=21	=21	=21
0AA	0e	1A	1d]
.	.	1A	1c
=22	=22	=22	=22
1r	1d	1B-	1d
1AA	1c	1A	1e
=23	=23	=23	=23
0D	1.A	0F	0f
.	2B\	.	.
=24	=24	=24	=24
[0C	1c	0G	[0e
.	2B\	.	.
.	2A/	.	.
=25	=25	=25	=25
0C]	0G	0c	0e]
=26	=26	=26	=26
0F	1F	0c	0a
.	[1A	.	.
=27	=27	=27	=27
1F	1A]	1c	1a
[1D	1A	[1d	[1a
=28	=28	=28	=28
1D]	1A	1d]	1a]
1F	1A	1d	1a
=29	=29	=29	=29
0E	[0B	[0e	[0g
=30	=30	=30	=30
1E	1B]	1e]	1g]
1C	1c	1e	1g
=31	=31	=31	=31
0C	0c	0e	0g
=32	=32	=32	=32
0D	1r	0A	0f
.	1F	.	.
=33	=33	=33	=33
1D	1D	1A	1f
1C	1E	1A	1e
=34	=34	=34	=34
1D	1F	0A	1d
1AA	1E	.	1c
=35	=35	=35	=35
[0BB-	1G	1.D	[0d
.	1F	.	.
.	.	2E/	.
=36	=36	=36	=36
0BB-]	0D	1F	0d]
.	.	1G	.
=37	=37	=37	=37
[0AA	0E	1.A	[0c
.	.	2G/	.
=38	=38	=38	=38
1AA]	[0A	1E	0c]
1FF	.	1F	.
=39	=39	=39	=39
0FF	0A]	1C	0r
.	.	1F	.
=40	=40	=40	=40
[0C	[0G	1r	[0e
.	.	[1E	.
=41	=41	=41	=41
1C]	1G]	1E]	1e]
1C	1G	1E	1e
=42	=42	=42	=42
*k[b-]	*	*	*
1.AA	1.A	0E	0c
2FF/	2B\	.	.
=43	=43	=43	=43
0FF;	0c;	0F;	0A;
=44	=44	=44	=44
1FF	0F	1F	1A
[1BB-	.	1D	[1d
=45	=45	=45	=45
1BB-]	1F	0D	1d]
1BB-	1G	.	1d
=46	=46	=46	=46
0AA	0A	0E	0c
=47	=47	=47	=47
1AA	1r	1E	1c
[1D	1A	[1F	[1f
=48	=48	=48	=48
1D]	1A	1F]	1f]
1D	1B	1F	1f
=49	=49	=49	=49
0C	0c	0G	0e
=50	=50	=50	=50
1C	1r	1G	1e
[1F	1c	[1A	[1a
=51	=51	=51	=51
1F]	1c	1A]	0a]
1F	1d	1A	.
=52	=52	=52	=52
1E	1e	2B\	1g
.	.	2c\	.
[1D	1A	[1d	[1f
=53	=53	=53	=53
1D]	1B	1d]	1f]
[1C	[1c	1G	[1e
=54	=54	=54	=54
1C]	1c]	1A	1e]
1BB-	1d	1D	1d
=55	=55	=55	=55
1AA	1c	1A	1e
1BB-	[1d	1G	1d
=56	=56	=56	=56
0AA	2d\]	0A	0e
.	4c#i\	.	.
.	4B\	.	.
.	1c#i	.	.
=57	=57	=57	=57
0Dl	0dl	0Al	0dl
!!LO:LB:i:g=z
=58||	=58||	=58||	=58||
*>B	*>B	*>B	*>B
!!section: Secunda pars: O domine adoro te in cruce vulneratum
!!!OMD: Secunda pars: O domine adoro te in cruce vulneratum
*M2/1	*M2/1	*M2/1	*M2/1
*met(C|)	*met(C|)	*met(C|)	*met(C|)
*MM360	*MM360	*MM360	*MM360
[0F	[0A	[0F	[0c
=59	=59	=59	=59
0F]	0A]	0F_	0c]
=60	=60	=60	=60
[0BB-	[0B-	0F_	[0d
=61	=61	=61	=61
0BB-]	0B-]	0F]	0d]
=62	=62	=62	=62
[0D	[0F	[0f	[0A
=63	=63	=63	=63
1D]	1F]	1f]	1A]
1D	1F	1f	1A
=64	=64	=64	=64
0D;	0F;	0f;	0A;
=65	=65	=65	=65
0C	0G	0e	0c
=66	=66	=66	=66
0F	[0F	0A	0c
=67	=67	=67	=67
[0BB-	1F]	[0d	1.d
.	[1B-	.	.
.	.	.	2e/
=68	=68	=68	=68
0BB-]	1B-]	0d]	0f
.	1A	.	.
=69	=69	=69	=69
0F;	0A;	0c;	0f;
=70	=70	=70	=70
0r	0r	0d	0f
=71	=71	=71	=71
0r	0r	1A	1e
.	.	1B	1d
=72	=72	=72	=72
0AA	0r	0c	0e
=73	=73	=73	=73
1BB-	[0F	1d	1d
2AA/	.	2A/	2c/
2GG/	.	2B\	2B/
=74	=74	=74	=74
1.FF	0F]	1.c	1.A
2GG/	.	2B\	2B/
=75	=75	=75	=75
1AA	1E	1A	1c
1BB-	1D	1G	[1d
=76	=76	=76	=76
0AA	0E	0A	1d]
.	.	.	1c#i
=77	=77	=77	=77
0BB-	0D	0F	[0d
=78	=78	=78	=78
0GG	0G	0B-	0d]
=79	=79	=79	=79
[0D	[0F	[0A	0f
=80	=80	=80	=80
0D]	1F]	0A]	0f
.	1D	.	.
=81	=81	=81	=81
0BB-	0d	0B-i	0f
=82	=82	=82	=82
0C	0c	0G	1e
.	.	.	[1g
=83	=83	=83	=83
1C	1.G	1.E	2g/]
.	.	.	2f/
1C	.	.	1e
.	2A/	2F/	.
=84	=84	=84	=84
1GG	1B	1G	1d
1AA	[1c	1F	1c
=85	=85	=85	=85
0GG	1c]	[0G	0d
.	1B	.	.
=86	=86	=86	=86
[0C	1.c	1G]	[0e
.	.	[1c	.
.	2B\	.	.
=87	=87	=87	=87
0C_	1A	1c]	0e]
.	1G	1d	.
=88	=88	=88	=88
0C]	0c	0e	0r
=89	=89	=89	=89
0D	0F	0f	0A
=90	=90	=90	=90
1D	1F	1f	1A
[1D	[1F	[1f	[1A
=91	=91	=91	=91
1D]	1F]	1f]	1A]
1D	1F	1f	1A
=92	=92	=92	=92
0GG	0G	1.d	0B
.	.	2e\	.
=93	=93	=93	=93
[0D	1.F	0f	0A
.	2G/	.	.
=94	=94	=94	=94
0D]	1A	1r	1A
.	[1B-i	1F	[1d
=95	=95	=95	=95
1BB-	1B-]	1.F	1d]
[1F	1A	.	1c
.	.	2G/	.
=96	=96	=96	=96
2F\]	0F	1A	1d
2E\	.	.	.
1D	.	1B	[1f
=97	=97	=97	=97
0C	[0G	0c	1f]
.	.	.	1e
=98	=98	=98	=98
0GG	0G_	0B	0d
=99	=99	=99	=99
[0C	0G]	[0c	0e
=100	=100	=100	=100
0C]	0E	0c]	0r
=101	=101	=101	=101
0FF	0F	0A	0c
=102	=102	=102	=102
1BB-	1D	1F	1d
1AA	1E	[1A	1c
=103	=103	=103	=103
0D	0F	1A]	0d
.	.	1B	.
=104	=104	=104	=104
[0C	[0G	[0c	[0e
=105	=105	=105	=105
0C]	0G]	0c]	0e]
=106	=106	=106	=106
1FF	0F	1A	1c
[1BB-	.	1B-	[1d
=107	=107	=107	=107
1BB-]	1D	1F	1d]
1AA	1E	1A	1c
=108	=108	=108	=108
1D	1F	1B	1d
1C	1G	[1c	1e
=109	=109	=109	=109
1.F	0A	1c]	[0f
.	.	[1F	.
2E\	.	.	.
=110	=110	=110	=110
0D	0F	2F/]	0f]
.	.	2G/	.
.	.	2A/	.
.	.	2B\	.
=111	=111	=111	=111
0C	0G	0c	0e
=112	=112	=112	=112
1AA	1A	1c	1e
1AA	1A	1c	1e
=113	=113	=113	=113
1AA	1A	1c	1e
[1D	[1A	[1F	[1f
=114	=114	=114	=114
1D]	1A]	1F]	1f]
1AA	1A	1c	1e
=115	=115	=115	=115
1D	1A	1d	1f
1GG	1G	1B	[1g
=116	=116	=116	=116
1.C	1.E	0c	2g/]
.	.	.	2f/
.	.	.	[1e
2D\	2F/	.	.
=117	=117	=117	=117
1E	1G	1B	1e]
1F	1A	1A	1d
=118	=118	=118	=118
[0E	[0G	[0B	0e
=119	=119	=119	=119
1E]	1G]	1B]	[0el
1AA	1A	1c	.
=120	=120	=120	=120
0AAl	0Al	0cl	0e]
!!LO:LB:i:g=z
=121||	=121||	=121||	=121||
*>C	*>C	*>C	*>C
!!section: Tertia pars: O domine adoro te in sepulcro positum
!!!OMD: Tertia pars: O domine adoro te in sepulcro positum
*M2/1	*M2/1	*M2/1	*M2/1
*met(C|)	*met(C|)	*met(C|)	*met(C|)
*MM360	*MM360	*MM360	*MM360
[0D	[0F	[0A	[0f
=122	=122	=122	=122
0D]	0F]	0A]	0f]
=123	=123	=123	=123
0C	0G	[0c	[0e
=124	=124	=124	=124
0AA	0A	0c]	0e]
=125	=125	=125	=125
[0BB-	[0D	[0F	[0d
=126	=126	=126	=126
1BB-]	1D]	1F]	1d]
1BB-	1D	1F	1d
=127	=127	=127	=127
0BB-;	0F;	0B-;	0d;
=128	=128	=128	=128
0GG	[0G	0B-i	0d
=129	=129	=129	=129
[0C	0G]	0c	0e
=130	=130	=130	=130
1C]	[0E	[0C	1e
1BB-	.	.	1d
=131	=131	=131	=131
0AA	1E]	0C]	0c
.	1F	.	.
=132	=132	=132	=132
[0GG;	0G	[0D;	[0B;
=133	=133	=133	=133
0GG]	0G;	0D]	0B]
=134	=134	=134	=134
0AA	0E	0A	0c
=135	=135	=135	=135
1D	1F	1A	1d
1F	1A	1A	1A
=136	=136	=136	=136
0E	0G	0e	0B
=137	=137	=137	=137
1AA	1A	0e	1A
[1C	[1G	.	[1e
=138	=138	=138	=138
1C]	1G]	1.c	1e]
1C	1G	.	1e
.	.	2B\	.
=139	=139	=139	=139
0C	0c	1A	0e
.	.	1G	.
=140	=140	=140	=140
0D	0A	0F	0f
=141	=141	=141	=141
1.AA	[0c	[0A	1.e
2BB-/	.	.	2d/
=142	=142	=142	=142
2C/	1c]	1A]	2e/
2D\	.	.	2f/
1E	1B	1G	[1g
=143	=143	=143	=143
1.C	[0c	1E	1g]
.	.	[1e	1a
2D\	.	.	.
=144	=144	=144	=144
1E	1c]	1e]	1g
1F	1A	1d	[1a
=145	=145	=145	=145
0E	0B	0e	2a/]
.	.	.	4g#i/
.	.	.	4f#i/
.	.	.	1g#i
=146	=146	=146	=146
[0F	[0A	0c	[0a
=147	=147	=147	=147
1F]	0A]	[0f	0a]
1D	.	.	.
=148	=148	=148	=148
0D	0d	0f]	0r
=149	=149	=149	=149
0E	0B	0e	0g
=150	=150	=150	=150
1E	1B	1e	1g
[1C	[1c	[1e	[1g
=151	=151	=151	=151
1C]	1c]	1e]	1g]
[1D	[1A	[1d	[1f
=152	=152	=152	=152
1D]	1A]	1d]	1f]
1AA	1A	1c	1e
=153	=153	=153	=153
1D	1F	1A	1f
1BBni	1G	1B	1d
=154	=154	=154	=154
0AA	0A	0c	0e
=155	=155	=155	=155
[0E	[0B	[0e	[0g
=156	=156	=156	=156
1E]	1B]	1e]	1g]
1E	1B	1e	1g
=157	=157	=157	=157
0E	0B	0e	[0g
=158	=158	=158	=158
1.C	[0e	1.E	0g]
2D\	.	2F/	.
=159	=159	=159	=159
0E	0e]	0G	0r
=160	=160	=160	=160
0F	0c	1F	0a
.	.	[1A	.
=161	=161	=161	=161
1D	1d	2A/]	1f
.	.	2B\	.
[1C	[1e	1c	[1g
=162	=162	=162	=162
2C/]	2e\]	0G	2g/]
2D\	2d\	.	2f/
1E	2c\	.	2e/
.	2B\	.	2d/
=163	=163	=163	=163
[0AA	[0c	[0A	[0e
=164	=164	=164	=164
0AA]	0c]	0A]	0e]
=165	=165	=165	=165
0D	0A	1D	0f
.	.	[1F	.
=166	=166	=166	=166
1BBni	1B	2F/]	1d
.	.	2G/	.
[1AA	[1c	1A	[1e
=167	=167	=167	=167
2AA/]	2c\]	0E	2e/]
2BBni/	2B\	.	2d/
1C	2A/	.	2c/
.	2G/	.	2B/
=168	=168	=168	=168
0FF	[0A	[0F	[0c
=169	=169	=169	=169
0F	0A]	0F]	0c]
=170	=170	=170	=170
0D	0F	0f	0d
=171	=171	=171	=171
2E\	1G	0e	1B
2D\	.	.	.
2C/	[1A	.	[1c
2BBni/	.	.	.
=172	=172	=172	=172
1AA	2A/]	1c	2c/]
.	2G/	.	2B/
[1D	2F/	[1f	2A/
.	2E/	.	2G/
=173	=173	=173	=173
1D]	1D	1f]	0A
1C	1E	1e	.
=174	=174	=174	=174
0D	0F	0d	[0Al
=175	=175	=175	=175
0AAl	0El	0cl	0A]
!!LO:LB:i:g=z
=176||	=176||	=176||	=176||
*>D	*>D	*>D	*>D
!!section: Quarta pars: O domine pastor bone
!!!OMD: Quarta pars: O domine pastor bone
*M2/1	*M2/1	*M2/1	*M2/1
*met(C|)	*met(C|)	*met(C|)	*met(C|)
*MM360	*MM360	*MM360	*MM360
[0AA	[0A	[0c	[0e
=177	=177	=177	=177
0AA]	0A]	0c]	0e]
=178	=178	=178	=178
[0D	[0A	[0d	[0f
=179	=179	=179	=179
1D]	1A]	1d]	1f]
1AA	1A	1c	1e
=180	=180	=180	=180
0D	0A	0d	0f
=181	=181	=181	=181
0C	0c	[0G	0e
=182	=182	=182	=182
0GG	0B-	1G]	1g
.	.	1G	2f/
.	.	.	2e/
=183	=183	=183	=183
0GG	0B-	0G	0d
=184	=184	=184	=184
0AA;	0A;	0E;	0c;
=185	=185	=185	=185
0r	0A	0r	0c
=186	=186	=186	=186
0r	1A	0r	1c
.	[1G	.	1d
=187	=187	=187	=187
1C	1G]	1c	1e
1D	1F	1B	[1f
=188	=188	=188	=188
0C	0G	0c	1f]
.	.	.	1e
=189	=189	=189	=189
[0FF	[0F	[0A	1f
.	.	.	1d
=190	=190	=190	=190
0FF]	0F]	0A]	0c
=191	=191	=191	=191
0F	0c	0A	[0a
=192	=192	=192	=192
1F	1d	1A	1a]
1E	[1e	1B	[1g
=193	=193	=193	=193
1C	1e]	1c	1g]
1D	[1f	2A/	1f
.	.	2B\	.
=194	=194	=194	=194
0C	2f\]	0c	0g
.	2d\	.	.
.	1e	.	.
=195	=195	=195	=195
1.D	1f	1.F	0f
.	1d	.	.
2E\	.	2G/	.
=196	=196	=196	=196
0F	0c	0A	0r
=197	=197	=197	=197
1F	1c	1A	1a
1F	1c	1A	1a
=198	=198	=198	=198
1F	1d	1A	1a
[1C	[1e	[1c	[1g
=199	=199	=199	=199
1C]	1e]	1c]	1g]
1D	1f	1F	1f
=200	=200	=200	=200
[0C	1.e	[0c	[0g
.	2d\	.	.
=201	=201	=201	=201
1C]	1e	1c]	1g]
1F	1f	1c	1a
=202	=202	=202	=202
0F;	0f;	0c;	0a;
=203	=203	=203	=203
1.C	1.e	1.c	1.g
2C/	2e\	2c\	2g/
=204	=204	=204	=204
1C	1e	1c	1g
1C	1e	1c	1e
=205	=205	=205	=205
2.D\	1.d	1.A	2.f/
4C/	.	.	4e/
2D\	.	.	2f/
2E\	2B\	2G/	2g/
=206	=206	=206	=206
0C	2c\	1G	1e
.	2B\	.	.
.	1G	1E	1g
=207	=207	=207	=207
1r	1A	1F	2f/
.	.	.	2e/
1GG	1B-	1G	1d
=208	=208	=208	=208
1AA	0A	1.C	0c
2AA/	.	.	.
2BB-/	.	2D/	.
=209	=209	=209	=209
0C	0G	0E	0r
=210	=210	=210	=210
0F	0A	1r	0c
.	.	[1F	.
=211	=211	=211	=211
1D	1B	1F]	1d
[1C	[1c	1G	[1e
=212	=212	=212	=212
2C/]	2c\]	1A	2e/]
2C/	2c\	.	2e/
1C	1c	1G	1e
=213	=213	=213	=213
1BB-	1d	1B-	1f
1C	1c	1G	1e
=214	=214	=214	=214
0D	0f	1B-i	0d
.	.	1A	.
=215	=215	=215	=215
[0AA	[0e	0A	0c
=216	=216	=216	=216
0AA]	0e]	1r	1r
.	.	1A	1c
=217	=217	=217	=217
0r	0r	1B-	1d
.	.	1A	1c
=218	=218	=218	=218
0r	0r	0F	1d
.	.	.	1A
=219	=219	=219	=219
0r	0r	0G	0B-i
=220	=220	=220	=220
1r	1r	0A	1A
1F	1A	.	1c
=221	=221	=221	=221
1BB-	1B-	1r	1d
1F	1A	[1A	1c
=222	=222	=222	=222
0D	0F	1A]	1d
.	.	1B	[1f
=223	=223	=223	=223
0C	0G	0c	1f]
.	.	.	1e
=224	=224	=224	=224
0FFl	0Fl	0cl	0fl
!!LO:LB:i:g=z
=225||	=225||	=225||	=225||
*>E	*>E	*>E	*>E
!!section: Quinta pars: O domine propter illam amaritudinem
!!!OMD: Quinta pars: O domine propter illam amaritudinem
*M2/1	*M2/1	*M2/1	*M2/1
*met(C|)	*met(C|)	*met(C|)	*met(C|)
*MM360	*MM360	*MM360	*MM360
*k[]	*	*	*
[0F	[0F	[0c	[0a
=226	=226	=226	=226
0F]	0F]	0c]	0a_
=227	=227	=227	=227
0D	0f	0d	0a]
=228	=228	=228	=228
1.E	[0e	[0B	1.g
2D\	.	.	2f/
=229	=229	=229	=229
1E	1e]	1B]	1g
1F	1c	1A	1a
=230	=230	=230	=230
1.D	[0d	[0A	1.f
2C/	.	.	2e/
=231	=231	=231	=231
1D	1d]	1A]	1f
1E	1B	1G	1g
=232	=232	=232	=232
1.C	[0c	[0G	1.e
2BB/	.	.	2d/
=233	=233	=233	=233
1C	1c]	1G]	1e
1D	1A	1F	1f
=234	=234	=234	=234
0GG	1.B	0G	0d
.	2G/	.	.
=235	=235	=235	=235
[0C	0G	1.E	[0e
.	.	2F/	.
=236	=236	=236	=236
0C_	[0c	1G	0e_
.	.	1A	.
=237	=237	=237	=237
0C]	0c]	0G	0e]
=238	=238	=238	=238
0AA	0c	0A	0e
=239	=239	=239	=239
1C	1c	1G	1e
1D	1A	1F	[1f
=240	=240	=240	=240
0BB	0d	0D	1f]
.	.	.	2e/
.	.	.	2d/
=241	=241	=241	=241
0AA	1c	0A	0e
.	2d\	.	.
.	2e\	.	.
=242	=242	=242	=242
0D	0f	1A	0d
.	.	1A	.
=243	=243	=243	=243
1BB	1f	1B	1d
[1C	[1e	1G	[1g
=244	=244	=244	=244
1C]	1e]	1.c	1g]
1C	1e	.	1g
.	.	2B\	.
=245	=245	=245	=245
1.D	1.d	[0A	1.f
2AA/	2c\	.	2e/
=246	=246	=246	=246
1D	1d	1A]	1f
1E	1B	1G	1g
=247	=247	=247	=247
[0AA	[0c	[0A	[0e
=248	=248	=248	=248
0AA]	0c_	0A]	0e]
=249	=249	=249	=249
0F	0c]	0A	0r
=250	=250	=250	=250
1.G	0r	1B	0d
.	.	1d	.
2F\	.	.	.
=251	=251	=251	=251
0E	0G	1.c	1e
.	.	.	1g
.	.	2B\	.
=252	=252	=252	=252
0D	0A	0d	1.f
.	.	.	2e/
=253	=253	=253	=253
0E	0G	1r	0g
.	.	1B	.
=254	=254	=254	=254
0C	0c	1c	1r
.	.	1e	1e
=255	=255	=255	=255
1D	1A	1.d	1f
1F	1A	.	1a
.	.	2c\	.
=256	=256	=256	=256
0E	0B	0e	1.g#i
.	.	.	2f#i/
=257	=257	=257	=257
0AA	[0A	1r	0a
.	.	1c	.
=258	=258	=258	=258
0D	0A]	1d	1r
.	.	[1f	1f
=259	=259	=259	=259
1E	0G	2f\]	1g
.	.	2e\	.
1G	.	[1e	[1b-i
=260	=260	=260	=260
0F	1c	1e]	2b-\]
.	.	.	2a/
.	1A	1d	[1a
=261	=261	=261	=261
0E	0B	[0e	1a]
.	.	.	1g#i
=262	=262	=262	=262
0r	[0A	1e]	[0a
.	.	1c	.
=263	=263	=263	=263
1.AA	0A_	[0c	0a]
2AA/	.	.	.
=264	=264	=264	=264
1AA	0A]	0c]	0r
1AA	.	.	.
=265	=265	=265	=265
1BB	0r	0r	1.d
1GG	.	.	.
.	.	.	2d/
=266	=266	=266	=266
0BB	0r	0r	1d
.	.	.	1d
=267	=267	=267	=267
[0AA	0r	1.c	1e
.	.	.	1c
.	.	2c\	.
=268	=268	=268	=268
0AA]	0r	1c	0e
.	.	1c	.
=269	=269	=269	=269
[0BB	1.D	1d	[0d
.	.	1B	.
.	2D/	.	.
=270	=270	=270	=270
0BB]	1D	0d	0d]
.	1D	.	.
=271	=271	=271	=271
[0AA	1E	[0c	0r
.	1C	.	.
=272	=272	=272	=272
0AA]	0E	0c]	0r
=273	=273	=273	=273
0r	0D	1d	0d
.	.	1A	.
=274	=274	=274	=274
0r	1G	1B	1d
.	1A	1A	1c
=275	=275	=275	=275
0r	0B	1.G	1d
.	.	.	1e
.	.	2F/	.
=276	=276	=276	=276
0r	[0A	0D	0f
=277	=277	=277	=277
0D	0A_	1r	1f
.	.	1F	[1f
=278	=278	=278	=278
1D	0A]	1D	1f]
1C	.	1E	1e
=279	=279	=279	=279
1.D	0r	1F	0d
.	.	1G	.
2E\	.	.	.
=280	=280	=280	=280
0F	0r	1A	0c
.	.	[1c	.
=281	=281	=281	=281
1F	0A	1c]	0r
[1F	.	1c	.
=282	=282	=282	=282
1F]	1A	0c	0r
1E	1G	.	.
=283	=283	=283	=283
0D	1A	0d	0f
.	1B	.	.
=284	=284	=284	=284
0C	0c	[0G	0e
=285	=285	=285	=285
1.C	1c	0G]	1.e
.	[1c	.	.
2BB/	.	.	2d/
=286	=286	=286	=286
1AA	1c]	1r	1e
1GG	1B	[1d	[1g
=287	=287	=287	=287
0D	0A	0d]	1g]
.	.	.	1f#i
=288	=288	=288	=288
[0GG	[0G	[0B	1.g
.	.	.	2f/
=289	=289	=289	=289
0GG]	0G]	0B]	1g
.	.	.	1e
=290	=290	=290	=290
0G	0r	1r	0d
.	.	1G	.
=291	=291	=291	=291
1F	0r	1A	0r
1E	.	[1c	.
=292	=292	=292	=292
0D	0r	2c\]	0r
.	.	2A/	.
.	.	1B	.
=293	=293	=293	=293
0C	1r	[0c	0g
.	1G	.	.
=294	=294	=294	=294
1r	1A	0c]	1f
1C	[1c	.	1e
=295	=295	=295	=295
1F	2c\]	0r	0d
.	2A/	.	.
1G	1B	.	.
=296	=296	=296	=296
0A	2.c\	0r	[0c
.	4B\	.	.
.	4A/	.	.
.	4G/	.	.
.	[2A/	.	.
=297	=297	=297	=297
0AA	2A/]	1r	0c]
.	2F/	.	.
.	1E	1C	.
=298	=298	=298	=298
0BB	1r	1F	0d
.	1D	1G	.
=299	=299	=299	=299
0AA	1.E	1.A	1r
.	.	.	1c
.	[2F/	2F/	.
=300	=300	=300	=300
1D	2F/]	1F	1f
.	4E/	.	.
.	4D/	.	.
1C	1E	[1c	1g
=301	=301	=301	=301
1.F	1r	0c]	1.a
.	[1A	.	.
2E\	.	.	2f/
=302	=302	=302	=302
1D	1A]	1d	1f
1E	1G	1B	[1g
=303	=303	=303	=303
0C	1A	0c	2g/]
.	.	.	2f/
.	1E	.	[1e
=304	=304	=304	=304
0D	0F	[0A	1e]
.	.	.	1d
=305	=305	=305	=305
1r	[0E	0A_	[0e
[1AA	.	.	.
=306	=306	=306	=306
1AA]	0E]	0A]	1e]
1AA	.	.	1c
=307	=307	=307	=307
1.BB	0r	1r	1.d
.	.	[1D	.
2C/	.	.	2c/
=308	=308	=308	=308
0D	1r	1D]	0A
.	[1A	1D	.
=309	=309	=309	=309
1.C	1A]	1.E	0r
.	1A	.	.
2BB/	.	2F/	.
=310	=310	=310	=310
[0GG	1.B	[0G	1r
.	.	.	[1d
.	2c\	.	.
=311	=311	=311	=311
0GG]	1d	0G]	1d]
.	1B	.	1d
=312	=312	=312	=312
1.C	0c	1r	1.e
.	.	[1G	.
2D\	.	.	2f/
=313	=313	=313	=313
0E	[0B	1G]	[0g
.	.	1G	.
=314	=314	=314	=314
0E	1B]	1.G	0g]
.	1B	.	.
.	.	4A/	.
.	.	4B\	.
=315	=315	=315	=315
1r	1A	1c	0a
1D	1d	1f	.
=316	=316	=316	=316
1E	1c	1e	0g
1G	1B	1d	.
=317	=317	=317	=317
1F	1c	0f	1a
1D	1d	.	[1a
=318	=318	=318	=318
0E	0B	0e	1a]
.	.	.	1g#i
=319	=319	=319	=319
0AA	[0A	1.c	[0a
.	.	2d\	.
=320	=320	=320	=320
1r	0A]	1e	0a]
1D	.	1f	.
=321	=321	=321	=321
1E	1r	1e	0r
1F	1A	1c	.
=322	=322	=322	=322
1.G	1B	1r	1d
.	1c	1G	1e
2F\	.	.	.
=323	=323	=323	=323
1D	2d\	1A	1f
.	2c\	.	.
[1E	2B\	1G	[1g
.	2A/	.	.
=324	=324	=324	=324
2E\]	1G	1B	2g/]
2D\	.	.	2f/
2C/	[1A	[1c	2e/
2BB/	.	.	2d/
=325	=325	=325	=325
1AA	1A]	2c\]	1c
.	.	2B\	.
1BB	1D	1G	[1d
=326	=326	=326	=326
0AA	0E	0A	1d]
.	.	.	1c#i
=327	=327	=327	=327
[0A	[0D	[0F	[0d
=328	=328	=328	=328
0A]	0D]	0F]	0d]
=329	=329	=329	=329
1.D	0d	0f	0r
2E\	.	.	.
=330	=330	=330	=330
1F	1c	1r	0a
1D	1d	1f	.
=331	=331	=331	=331
1E	2B\	1e	1g
.	1c	.	.
1F	.	1A	1a
.	[2d\	.	.
=332	=332	=332	=332
2D\	4d\]	1d	2f/
.	4c\	.	.
2F\	2A/	.	2a/
2E\	2B\	2e\	2g/
2F\	2A/	2c\	[2a/
=333	=333	=333	=333
1.D	2F/	2.d\	4a/]
.	.	.	4g/
.	1A	.	4f/
.	.	4c\	4e/
.	.	2d\	2f/
2E\	2G/	2B\	[2g/
=334	=334	=334	=334
1.C	2E/	2.c\	4g/]
.	.	.	4f/
.	1G	.	4e/
.	.	4B\	4d/
.	.	2c\	2e/
2D\	2F/	2A/	[2f/
=335	=335	=335	=335
1.BB	2D/	2.B\	4f/]
.	.	.	4e/
.	1F	.	4d/
.	.	4A/	4c/
.	.	2B\	2d/
2C/	2E/	2G/	[2e/
=336	=336	=336	=336
2AA/	2F/	2A/	4e/]
.	.	.	4d/
2BB/	2D/	2G/	4c#i/
.	.	.	4B/
1AA	1E	1A	1c#i
=337	=337	=337	=337
[0Dl	[0Dl	[0Al	1r
.	.	.	1d
=338	=338	=338	=338
0D]	0D]	0A]	0dl
==	==	==	==
*-	*-	*-	*-
!!!RDF**kern: l=long note in original notation
!!!RDF**kern: i=editorial accidental
!!!ENC:	Jesse Rodin; Victoria Chang 2011/05/25
!!!END:	2011/05/25/
!!!EED:	Jesse Rodin
!!!EEV:	2011/10/18/
!!attribution-level@Jos: 2 (slightly less secure)
!!!ONB:	Translated from MusicXML and edited on 2011/10/18/ by Craig Sapp
!!muse2ps: u^(2) @{OTL2} (3) @{OTL3} (4) @{OTL4} (5) @{OTL5}^C^@{COA}?\n@{SCT}^v95,95,95,150i2I150c90Q16
